src/img/features/feature-0.svg

<svg width="69" height="69" viewBox="0 0 69 69" fill="none" xmlns="http://www.w3.org/2000/svg">
<path d="M67.8408 40.0146C66.8869 38.6819 65.2979 37.7862 63.6937 37.6773C62.3843 37.5885 61.1979 38.0313 60.3538 38.9247C60.1686 39.1207 59.9687 39.3359 59.7573 39.5665C58.8235 38.7111 57.5999 38.1606 56.3661 38.0767C55.0563 37.9882 53.8704 38.4307 53.0263 39.3241C51.189 41.2691 47.9359 45.0681 45.3813 48.0924C45.048 47.8954 44.6914 47.7328 44.3143 47.611C43.093 47.0851 26.2595 39.8959 18.7977 39.8959C6.74427 39.8959 1.20688 46.3744 0.976978 46.6503C0.624484 47.0733 0.681659 47.7006 1.10356 48.0545C1.5256 48.4084 2.15519 48.3529 2.51035 47.932C2.52311 47.9169 3.81674 46.4023 6.45905 44.9098C8.8946 43.5341 13.0122 41.8943 18.7977 41.8943C25.9663 41.8943 43.3926 49.3898 43.5679 49.4655C43.6 49.4794 43.633 49.4917 43.6665 49.5022C44.4988 49.7618 45.1801 50.3301 45.585 51.1023C45.9898 51.8743 46.0698 52.758 45.8099 53.5903C45.5656 54.3731 45.0189 55.0526 44.3053 55.4567C43.5067 55.9089 42.5645 55.9639 41.6894 55.7243L30.7869 52.7215C30.2549 52.5754 29.7046 52.8875 29.5581 53.4196C29.4116 53.9516 29.7241 54.5017 30.2561 54.6482L41.1435 57.6468C43.29 58.3088 45.6919 57.4973 46.9894 55.6628C47.3078 55.2124 47.5533 54.7119 47.7176 54.1855C47.8543 53.7478 47.9316 53.301 47.9523 52.8546L50.8765 52.5468C51.1353 52.5196 51.3733 52.3925 51.5399 52.1925C51.6119 52.1059 58.782 43.4982 61.8065 40.2968C63.0637 38.9659 65.308 39.9093 66.2158 41.1775C67.6115 43.1276 65.877 45.2567 65.3121 45.8629C62.5363 48.8412 57.4462 54.9769 56.5314 56.0828L35.8151 66.441L15.9882 58.0929C15.8655 58.0411 15.7336 58.0145 15.6004 58.0145H1.74473C1.19292 58.0145 0.745483 58.462 0.745483 59.0138C0.745483 59.5656 1.19292 60.013 1.74473 60.013H15.3985L35.463 68.4612C35.5872 68.5136 35.7191 68.5395 35.8508 68.5395C36.0041 68.5395 36.1574 68.5041 36.2977 68.4339L57.6139 57.7757C57.7386 57.7134 57.8489 57.6256 57.9377 57.518C57.9962 57.4472 63.8225 50.3918 66.774 47.2252C68.9469 44.8941 69.3556 42.1309 67.8408 40.0146ZM50.2643 50.6019L47.6608 50.876C47.4763 50.3534 47.2102 49.8624 46.8746 49.4216C49.0507 46.8455 52.5871 42.6995 54.4792 40.6967C55.026 40.118 55.7343 40.0373 56.2308 40.0707C57.0142 40.124 57.8173 40.4935 58.4214 41.0524C55.4234 44.4367 51.3419 49.3114 50.2643 50.6019Z" fill="url(#paint0_linear)"/>
<path d="M57.1671 20.7112H48.574V9.38699C48.574 8.83518 48.1267 8.38774 47.5747 8.38774C47.0228 8.38774 46.5755 8.83518 46.5755 9.38699V21.7105C46.5755 22.2623 47.0228 22.7097 47.5747 22.7097H54.466L34.785 39.5791L15.1039 22.7097H21.9952C22.547 22.7097 22.9944 22.2623 22.9944 21.7105V2.45917H46.5756V4.7906C46.5756 5.34241 47.0229 5.78984 47.5749 5.78984C48.1268 5.78984 48.5741 5.34241 48.5741 4.7906V1.46006C48.5741 0.908248 48.1268 0.460815 47.5749 0.460815H21.9953C21.4435 0.460815 20.9961 0.908248 20.9961 1.46006V20.7113H12.403C11.4968 20.7113 11.0629 21.878 11.7526 22.4692L34.1348 41.6538C34.5044 41.9707 35.0657 41.9707 35.4353 41.6538L57.8174 22.4692C58.5071 21.8779 58.0734 20.7112 57.1671 20.7112Z" fill="url(#paint1_linear)"/>
<path d="M41.8864 7.14841C41.496 6.75815 40.8635 6.75815 40.4732 7.14841L27.6834 19.9382C27.0679 20.5536 27.5163 21.6439 28.39 21.6439C28.6457 21.6439 28.9015 21.5464 29.0965 21.3512L41.8862 8.56144C42.2766 8.17118 42.2766 7.53853 41.8864 7.14841Z" fill="url(#paint2_linear)"/>
<path d="M40.114 15.3822C38.3877 15.3822 36.9832 16.7867 36.9832 18.513C36.9832 20.2393 38.3877 21.6439 40.114 21.6439C41.8403 21.6439 43.2449 20.2393 43.2449 18.513C43.2449 16.7867 41.8403 15.3822 40.114 15.3822ZM40.114 19.6455C39.4896 19.6455 38.9816 19.1376 38.9816 18.513C38.9816 17.8885 39.4895 17.3806 40.114 17.3806C40.7385 17.3806 41.2465 17.8885 41.2465 18.513C41.2465 19.1376 40.7385 19.6455 40.114 19.6455Z" fill="url(#paint3_linear)"/>
<path d="M29.4558 6.85571C27.7295 6.85571 26.325 8.26024 26.325 9.98654C26.325 11.7128 27.7295 13.1174 29.4558 13.1174C31.1821 13.1174 32.5867 11.7128 32.5867 9.98654C32.5867 8.26024 31.1823 6.85571 29.4558 6.85571ZM29.4558 11.119C28.8314 11.119 28.3234 10.6111 28.3234 9.98654C28.3234 9.362 28.8313 8.85407 29.4558 8.85407C30.0804 8.85407 30.5883 9.362 30.5883 9.98654C30.5883 10.6111 30.0803 11.119 29.4558 11.119Z" fill="url(#paint4_linear)"/>
<defs>
<linearGradient id="paint0_linear" x1="68.7455" y1="12.9674" x2="0.510465" y2="13.1567" gradientUnits="userSpaceOnUse">
<stop stop-color="#F59E27"/>
<stop offset="1" stop-color="#FC5829"/>
</linearGradient>
<linearGradient id="paint1_linear" x1="58.1569" y1="-32.6838" x2="11.2514" y2="-32.6171" gradientUnits="userSpaceOnUse">
<stop stop-color="#F59E27"/>
<stop offset="1" stop-color="#FC5829"/>
</linearGradient>
<linearGradient id="paint2_linear" x1="42.179" y1="-4.97485" x2="27.3473" y2="-4.95618" gradientUnits="userSpaceOnUse">
<stop stop-color="#F59E27"/>
<stop offset="1" stop-color="#FC5829"/>
</linearGradient>
<linearGradient id="paint3_linear" x1="43.2449" y1="10.3729" x2="36.9615" y2="10.3808" gradientUnits="userSpaceOnUse">
<stop stop-color="#F59E27"/>
<stop offset="1" stop-color="#FC5829"/>
</linearGradient>
<linearGradient id="paint4_linear" x1="32.5867" y1="1.84637" x2="26.3033" y2="1.85429" gradientUnits="userSpaceOnUse">
<stop stop-color="#F59E27"/>
<stop offset="1" stop-color="#FC5829"/>
</linearGradient>
</defs>
</svg>

<svg width="69" height="69" fill="none" xmlns="http://www.w3.org/2000/svg"><path d="M67.84 40.015c-.953-1.333-2.542-2.229-4.146-2.338-1.31-.088-2.496.354-3.34 1.248a58.56 58.56 0 0 0-.597.642c-.933-.856-2.157-1.406-3.39-1.49-1.31-.089-2.497.354-3.34 1.247-1.838 1.945-5.091 5.744-7.646 8.768a5.293 5.293 0 0 0-1.067-.481c-1.221-.526-18.055-7.715-25.516-7.715-12.054 0-17.591 6.478-17.821 6.754a.998.998 0 0 0 1.533 1.282c.013-.015 1.307-1.53 3.95-3.022 2.435-1.376 6.552-3.016 12.338-3.016 7.168 0 24.595 7.496 24.77 7.572.032.013.065.026.099.036.832.26 1.513.828 1.918 1.6.405.772.485 1.656.225 2.488a3.29 3.29 0 0 1-1.505 1.867c-.798.452-1.74.507-2.616.267l-10.902-3.002a1 1 0 0 0-.53 1.926l10.887 2.999c2.146.662 4.548-.15 5.845-1.984a5.295 5.295 0 0 0 .963-2.808l2.925-.308a1 1 0 0 0 .663-.354c.072-.087 7.242-8.695 10.267-11.896 1.257-1.331 3.501-.388 4.409.88 1.396 1.95-.339 4.08-.904 4.686-2.776 2.978-7.866 9.114-8.78 10.22L35.814 66.44l-19.827-8.348a.997.997 0 0 0-.388-.079H1.745a1 1 0 0 0 0 1.999h13.653l20.065 8.448a.997.997 0 0 0 .835-.027l21.316-10.658a.998.998 0 0 0 .324-.258c.058-.07 5.884-7.126 8.836-10.293 2.173-2.33 2.582-5.094 1.067-7.21zM50.265 50.602l-2.603.274a5.335 5.335 0 0 0-.786-1.454c2.176-2.576 5.712-6.722 7.604-8.725.547-.579 1.255-.66 1.752-.626.783.053 1.586.422 2.19.981-2.998 3.385-7.08 8.26-8.157 9.55z" fill="url(#paint0_linear)"/><path d="M57.167 20.711h-8.593V9.387a1 1 0 1 0-1.998 0V21.71a1 1 0 0 0 .999 1h6.891L34.785 39.58 15.104 22.71h6.891a1 1 0 0 0 1-1V2.46h23.58v2.33a1 1 0 0 0 2 0V1.46a1 1 0 0 0-1-1h-25.58a1 1 0 0 0-.999 1v19.251h-8.593c-.906 0-1.34 1.167-.65 1.758l22.382 19.185c.37.317.93.317 1.3 0l22.382-19.185c.69-.591.256-1.758-.65-1.758z" fill="url(#paint1_linear)"/><path d="M41.886 7.148a1 1 0 0 0-1.413 0l-12.79 12.79c-.615.616-.167 1.706.707 1.706a.995.995 0 0 0 .706-.293l12.79-12.79a.999.999 0 0 0 0-1.413z" fill="url(#paint2_linear)"/><path d="M40.114 15.382a3.134 3.134 0 0 0-3.13 3.131 3.134 3.134 0 0 0 3.13 3.13 3.135 3.135 0 0 0 3.13-3.13 3.134 3.134 0 0 0-3.13-3.13zm0 4.263a1.134 1.134 0 0 1 0-2.264 1.134 1.134 0 0 1 0 2.264z" fill="url(#paint3_linear)"/><path d="M29.456 6.856a3.134 3.134 0 0 0-3.131 3.13 3.134 3.134 0 0 0 3.13 3.131 3.135 3.135 0 0 0 3.132-3.13 3.134 3.134 0 0 0-3.131-3.131zm0 4.263a1.134 1.134 0 0 1 0-2.265 1.134 1.134 0 0 1 0 2.265z" fill="url(#paint4_linear)"/><defs><linearGradient id="paint0_linear" x1="68.746" y1="12.967" x2=".51" y2="13.157" gradientUnits="userSpaceOnUse"><stop stop-color="#F59E27"/><stop offset="1" stop-color="#FC5829"/></linearGradient><linearGradient id="paint1_linear" x1="58.157" y1="-32.684" x2="11.251" y2="-32.617" gradientUnits="userSpaceOnUse"><stop stop-color="#F59E27"/><stop offset="1" stop-color="#FC5829"/></linearGradient><linearGradient id="paint2_linear" x1="42.179" y1="-4.975" x2="27.347" y2="-4.956" gradientUnits="userSpaceOnUse"><stop stop-color="#F59E27"/><stop offset="1" stop-color="#FC5829"/></linearGradient><linearGradient id="paint3_linear" x1="43.245" y1="10.373" x2="36.962" y2="10.381" gradientUnits="userSpaceOnUse"><stop stop-color="#F59E27"/><stop offset="1" stop-color="#FC5829"/></linearGradient><linearGradient id="paint4_linear" x1="32.587" y1="1.846" x2="26.303" y2="1.854" gradientUnits="userSpaceOnUse"><stop stop-color="#F59E27"/><stop offset="1" stop-color="#FC5829"/></linearGradient></defs></svg>
